X:1
T:Symphony No.104
T:Symphony No.104, Movement 1
T:Haydn
T:CC0 1.0 Universal (Public Domain). David Coggins, Mark Gotham and FourScoreAndMore.org waive all rights to this document
T:CC0 1.0 Universal (Public Domain). David Coggins, Mark Gotham and FourScoreAndMore.org waive all rights to this document
T:CC0 1.0 Universal (Public Domain). David Coggins, Mark Gotham and FourScoreAndMore.org waive all rights to this document
T:CC0 1.0 Universal (Public Domain). David Coggins, Mark Gotham and FourScoreAndMore.org waive all rights to this document
T:CC0 1.0 Universal (Public Domain). David Coggins, Mark Gotham and FourScoreAndMore.org waive all rights to this document
T:CC0 1.0 Universal (Public Domain). David Coggins, Mark Gotham and FourScoreAndMore.org waive all rights to this document
T:CC0 1.0 Universal (Public Domain). David Coggins, Mark Gotham and FourScoreAndMore.org waive all rights to this document
T:CC0 1.0 Universal (Public Domain). David Coggins, Mark Gotham and FourScoreAndMore.org waive all rights to this document
T:CC0 1.0 Universal (Public Domain). David Coggins, Mark Gotham and FourScoreAndMore.org waive all rights to this document
T:CC0 1.0 Universal (Public Domain). David Coggins, Mark Gotham and FourScoreAndMore.org waive all rights to this document
T:CC0 1.0 Universal (Public Domain). David Coggins, Mark Gotham and FourScoreAndMore.org waive all rights to this document
T:CC0 1.0 Universal (Public Domain). David Coggins, Mark Gotham and FourScoreAndMore.org waive all rights to this document
T:CC0 1.0 Universal (Public Domain). David Coggins, Mark Gotham and FourScoreAndMore.org waive all rights to this document
T:CC0 1.0 Universal (Public Domain). David Coggins, Mark Gotham and FourScoreAndMore.org waive all rights to this document
T:CC0 1.0 Universal (Public Domain). David Coggins, Mark Gotham and FourScoreAndMore.org waive all rights to this document
T:CC0 1.0 Universal (Public Domain). David Coggins, Mark Gotham and FourScoreAndMore.org waive all rights to this document
T:CC0 1.0 Universal (Public Domain). David Coggins, Mark Gotham and FourScoreAndMore.org waive all rights to this document
T:CC0 1.0 Universal (Public Domain). David Coggins, Mark Gotham and FourScoreAndMore.org waive all rights to this document
T:CC0 1.0 Universal (Public Domain). David Coggins, Mark Gotham and FourScoreAndMore.org waive all rights to this document
T:CC0 1.0 Universal (Public Domain). David Coggins, Mark Gotham and FourScoreAndMore.org waive all rights to this document
T:CC0 1.0 Universal (Public Domain). David Coggins, Mark Gotham and FourScoreAndMore.org waive all rights to this document
T:CC0 1.0 Universal (Public Domain). David Coggins, Mark Gotham and FourScoreAndMore.org waive all rights to this document
T:CC0 1.0 Universal (Public Domain). David Coggins, Mark Gotham and FourScoreAndMore.org waive all rights to this document
T:CC0 1.0 Universal (Public Domain). David Coggins, Mark Gotham and FourScoreAndMore.org waive all rights to this document
T:CC0 1.0 Universal (Public Domain). David Coggins, Mark Gotham and FourScoreAndMore.org waive all rights to this document
T:CC0 1.0 Universal (Public Domain). David Coggins, Mark Gotham and FourScoreAndMore.org waive all rights to this document
T:CC0 1.0 Universal (Public Domain). David Coggins, Mark Gotham and FourScoreAndMore.org waive all rights to this document
T:CC0 1.0 Universal (Public Domain). David Coggins, Mark Gotham and FourScoreAndMore.org waive all rights to this document
T:CC0 1.0 Universal (Public Domain). David Coggins, Mark Gotham and FourScoreAndMore.org waive all rights to this document
T:CC0 1.0 Universal (Public Domain). David Coggins, Mark Gotham and FourScoreAndMore.org waive all rights to this document
T:CC0 1.0 Universal (Public Domain). David Coggins, Mark Gotham and FourScoreAndMore.org waive all rights to this document
T:CC0 1.0 Universal (Public Domain). David Coggins, Mark Gotham and FourScoreAndMore.org waive all rights to this document
T:CC0 1.0 Universal (Public Domain). David Coggins, Mark Gotham and FourScoreAndMore.org waive all rights to this document
T:CC0 1.0 Universal (Public Domain). David Coggins, Mark Gotham and FourScoreAndMore.org waive all rights to this document
T:CC0 1.0 Universal (Public Domain). David Coggins, Mark Gotham and FourScoreAndMore.org waive all rights to this document
T:CC0 1.0 Universal (Public Domain). David Coggins, Mark Gotham and FourScoreAndMore.org waive all rights to this document
T:CC0 1.0 Universal (Public Domain). David Coggins, Mark Gotham and FourScoreAndMore.org waive all rights to this document
T:CC0 1.0 Universal (Public Domain). David Coggins, Mark Gotham and FourScoreAndMore.org waive all rights to this document
C:Haydn
Z:CC0 1.0 Universal (Public Domain). David Coggins, Mark Gotham and FourScoreAndMore.org waive all rights to this document
%%score { ( 1 3 ) | ( 2 4 ) } { ( 5 7 ) | 6 } 8
L:1/8
Q:1/8=80
M:2/2
K:F
V:1 treble nm="Reduced Score"
V:3 treble 
V:2 bass 
V:4 bass 
V:5 treble nm="Chordal reduction\nand symbols"
V:7 treble 
V:6 bass 
V:8 treble nm="One-stave chords\n+ Roman numerals"
V:1
"^Adagio""^Introduction: Phase 1"!ff! [Dd]2 [Dd]7/4[Dd]/4 !fermata![Aa]4 | %1
 [Dd]2 [Dd]7/4[Dd]/4 !fermata![A,A]4 |!p! z4 z (d/>^c/ (.c).c) | z4 z (d/>^c/ (.c).c) | %4
 z4 z (d/>=c/ (.c).c) | (c3 B/>A/ .A) z .G z |"^Phase 2"!ff! [Ff]2 [Ff]7/4[Ff]/4 [cc']4 | %7
 [Ff]2 [Ff]7/4[Ff]/4 [Cc]4 |!p! z4 z (g/>^f/ (.f).f) | z4 z (a/>^g/ (.g).g) | %10
 z (b/>a/ (.a).a) z (b/>a/ (.a).a) | (d'2 ^c'2) [a-=c']4 | %12
 (a2 g)[G=eg]/>[Adf]/ .[Adf] z .[=EG^c] z |"^Phase 3"!ff! [Dd]2 [Dd]7/4[Dd]/4 [Aa]4 | %14
!pp! [Dd]2 [Dd]7/4[Dd]/4 (G4 | F4) =E4 || %16
[K:D][M:2/2][Q:1/4=144]"^Allegro""^1st Subject: Phase 1"[Q:1/2=80]!p! (F4 G2 [CE]2 | %17
 D4-) D(.E.F.G) | (.A2 .A2 .A2 .A2) | (B4 A2) A2- | (d4 c4 | B4 A4-) | A(GBA .G2) .F2 | %23
 ([FA]3 [DF] [CE]2) z2 |"^Phase 2" (F4 G2 [CE]2 | D4-) D(.E.F.G) | (.A2 .A2 .A2 .A2) | (B4 A4) | %28
 (d4 e4 | f4 g4) | (gf).[Bg].[Ge] .[Fd]2 .[Ec]2 |"^Transition, phase 1"!f! [dfd']4 [dgb]2 [deg]2 | %32
 .[dfa]2 (D/C/D/C/ .D2) .D2 | [dfd']4 [dgb]2 [deg]2 | .[dfa]2 (D/C/D/C/ .D2) .D2 | %35
 .[Bgb]2 (D/C/D/C/ .D2) .D2 | .[Afa]2 (D/C/D/C/ .D2) .D2 | .[Bgb]2 (D/C/D/C/ .D2) .D2 | %38
 .[Afa]2 (D/C/D/C/ .D2) .D2 | (d'6 c'2 | [dd']2 [dc']2 [db]2 [d^a]2) | (b6 ^a2 | %42
 [db]2 [d=a]2 [dg]2 [df]2) | ([Gg]dBd) [Gg]d[Gg]d | ([Gg]ece) [Gg]e[Gg]e | FfGg AaBb | %46
 cc'dd' ee'ff' | ([gg']d'bd') .g'.d'.g'.d' | ([gg']e'c'e') .g'.e'.g'.e' | %49
 [ff']2"^Phase 2" .b2 .b2 .b2 | (b3 c'/b/) .a2 .a2 | (^gabc' .[bd']2) .[bd']2 | ([bd']4 [ac']4) | %53
 b4 (^a2 c'2) | b4 (^a2 c'2) | [Bfb]2 [Bb]4 [B=a]2 | [B^g]abg efde | cdBc AcBA | ^GABG E2 .[G^g]2 | %59
 .[Aa]2 .[Bb]2 .[cc']2 .[^d^d']2 | .[ee']2 .^G2 .A2 .[Ac]2 | .[^Ge]2 .[Be^g]2 .[Aea]2 .[eac']2 | %62
 [e^ge']2 z2 [egbe']2 z2 | [e^gbe']2 z2 z4 |"^2nd Subject, Phase 1"!p! (c4 d2 B2 | A4-) A(.B.c.d) | %66
 .e2 .e2 .e2 .e2 | (f4 e2) e2- | (a4 ^g4 | f4 e4) | (edfe .d2) .c2 | ([ce]3 [Ac] .[^GB]2) z2 | %72
"^Phase 2" (c4 d2 B2 | A4-) A(.B.c.d) | .e2 .e2 .e2 .e2 | (f4 e4) |!p! [FA^d]8 | (=d4 c2) B2 | %78
 A4 (c2 B2 |!f!"^Phase 3" (A)a).a.a (a^g).[cc'].[cc'] | ([cc']f).f.f (fe).[Aa].[Aa] | %81
 ([Aa]d).d.d (dc).[cf].[cf] | (fe)(fe) (fe)(fe) | (fe)(fe) (fe)(fe) | (fe^de de=de | %85
"^Phase 4"!ff! (c)eae fdaf | e)ac'e fdaf | eac'e fdaf | eace AcEA |!ff! C8 | T^D6 (CD) | %91
 E2 ec ec=dB | cAec ecdB | cAfd fdfd | f2 [fb]d [fb]d[fb]d | [fb]2 [^gbd']d [gbd']d[gbd']d- | %96
 [d^gbd']2 z2 [cac']2 z2 | [dfb]2 z2 [Bde^g]2 z2 | [Acea]2 z2 z4 | %99
"^Closing section, Phase 1" z4 z2 [ee']2- | ([ee']2 c'2 a2) z2 | z4 z2 [ee']2- | %102
 ([ee']2 c'2 a2) .A2 | (!>!A4 ^G2 B2 | A2 c2 e2) .A2 | (!>!A4 ^G2 B2 | (A2) c2 e2) e2 | ^e8 | %108
 ([Af]2 ^g2 a2 f2 | (e4) ^d2 f2 | e2 ^g2 b2 =d2 |"^Phase 2"!f! c2) [Aa]4 (fd | .A2) [Aa]4 (fd | %113
 .A2) ([Aa]2- [Aa]fdB | (A4) (c2) B2 | .A2)"^Phase 3 = Codetta" .[Ace]2 .[Adf]2 .[dfa]2 | %116
 .[eac']2 .[Ace]2 .[Adf]2 .[dfa]2 | .[eac'].b.a.^g .f.e.[Fd].[Ec] | BA^GF EDCB, | %119
!ff! (A,CEC ECDB, | (C)EAc ecdB | (A)cea Acea | A2) z2 z4 :| %123
"^Development, Phase 1 (Bm to Em)"!p! (.F2 .F2 .F2 .F2) | (=G4 F4) | (.f2 .f2 .f2 .f2) | (=g4 f4) | %127
 (.b2 .b2 .b2 .b2) | (=c'4 b4) | a4 g4 |!p! [ef]8 | .a2 .a2 .b2 .b2 | (=c'4 b4) | .a2 .a2 .b2 .b2 | %134
 [ef=c']8 | (g4 e4 |"^Phase 2 (Em to C#m)"!f! (^d)fbf dfdf | ^dfdf dfdf) | b2 b4 b2- | b2 b4 b2 | %140
 ^b2 b4 b2- | b2 ^b4 b2- | b2 ^b4 b2- | b2 ^b4 b2 |!f! .[c^gc'] z"^Phase 3"!p! (g2 e2 c2) | %145
 (c4 ^B2 (^d2) | c2 e2 ^g2 c2) | (c4 ^B2 (^d2) | c2 e2 ^g2) .g2 | (^g4 ^^f2 (.^a2) | %150
 ^g2 ^d'2 b2 g2 | (^f4) ^e2 .^g2 | f2 c'2 =a2 f2 | (=e4) ^d2 .f2 | %154
"^Phase 4 (E to Em)" (e)^gbg bgaf | (e)^gbg bgaf | (=g)ebg bgaf | (=g)ebg bgaf | %158
"^Phase 5 (Em to Bm)" g2) .[=c=c']2 .[cc']2 .[cc']2 | (!>![=c=c']4 [Bb]4) | %160
 z2 .[Aa]2 .[Aa]2 .[Aa]2 | ((!>![Aa]4 [Gg]4)) | .F2 .f2 .E2 .e2 | .^D2 .^d2 .=C2 .=c2 | %164
 .B,2 .B2 .B,2 .[Ba]2 | ([Ba]=gfe ^dede | ^defd efga | (b)gfe ^dede | ^defd efga | (b)gfe ^dede) | %170
 (bgfe ^dede) |!ff! ([^eb]=dcd) ([eb]dcd) | ([^eb]=dcd) ([eb]dcd) | %173
"^Phase 6 (Bm to V of D)" .^A2 .[Acf]2 .[Acf]2 .[Acf]2 | ([Bd=g]4 [^Acf]4) | ([dfb]4 [ce^a]4) | %176
 ([^e^gd']6 c'b | .[f^a]2) .[=e=g]2 .[df]2 .[ce]2 | ([Bd]cde fdcB | ^ABcA Bcde | (f)dcB ^ABAB | %181
 ^ABcA Bcde | (f)dcB bB=aB | gBfB eBdB | %184
"^Phase 7 (Re-transition, V of D)" .c2) .[cea]2 .[cea]2 .[cea]2 | [d=f_b]4 [^d^f=b]4 | (=c'4 ^c'4 | %187
 .[fad']2) .[fa^d']2 .[ge']2 .[ff']2 |!ff! [gg']3 e' [gg']e'[gg']e' | [gg']3 e' [gg']e'[gg']e' | %190
 [gg']2 [gc'e'g']2 [gc'e'g']2 [gc'e'g']2 | [gc'e'g']2 z2 !fermata!z4 | %192
!p!"^Recapitulation, 1st Subject: Phase 1" (F4 G2 [CE]2 | D4-) D(.E.F.G) | (.A2 .A2 .A2 .A2) | %195
 (B4 A2) A2- | (d4 c4 | B4 A4-) | A(GBA .G2) .F2 | ([FA]3 [DF] [CE]2) z2 |"^Phase 2" (a4 b2 g2) | %201
 (g4 f4) | e4 a4- | a2 ^g2 a4- | a2 b4 a2- | a2 g4 f2- | (fe).g.e .d2 .c2 | %207
"^Transition, phase 1"!ff! [dfd']4 [dgb]2 [deg]2 | .[dfa]2 (D/C/D/C/ .D2) .D2 | %209
 [dfd']4 [dgb]2 [deg]2 | .[dfa]2 (D/C/D/C/ .D2) .D2 | .[Bgb]2 (D/C/D/C/ .D2) .D2 | %212
 .[Afa]2 (D/C/D/C/ .D2) .D2 | .[Bgb]2 (D/C/D/C/ .D2) .D2 | .[Afa]2 (D/C/D/C/ .D2) .D2 | (d'6 c'2 | %216
 [dd']2 [dc']2 [db]2 [d^a]2) | (b6 ^a2 | [db]2 [d=a]2 [dg]2 [df]2) | ([Gg]dBd gdgd | %220
 [Gg])ece gege |"^(Phase 1 extended)" [Ff]cAc fcfc | [Ff]dBd fdfd | [Ee]BGB [Ee]cAc | %224
 [Dd]AFA [Dd]B^GB | cAdB ecfd | =geaf bgec' |"^Phase 2"!ff! .[dad']2 .[dad']2 .[dad']2 .[dad']2 | %228
 ([eac'e']4 [dad']4) | .[dad']2 .[dad']2 .[dad']2 .[dad']2 | (([eac'e']4 [dad']4)) | %231
 .[eac'e']2 .[dad']2 .[eac'e']2 .[dad']2 | .[eac'e']2 .[dad']2 .[eac'e']2 .[dad']2 | %233
 .[cc']2 z2 .[Bb]2 z2 | .[Aa]2 z2 .[Gg]2 z2 | .[Ff]2 z2 z4 |!p! .[Ee]2 z2 z4 | %237
!p! .^d2 .d2 .d2 .d2 | (f4 e4) | .c2 .c2 .c2 .c2 | (e4 d4) | z8 | z8 |!pp! .A,2 .A,2 .A,2 .A,2 | %244
 .B,2 .B,2 .B,2 .B,2 | .C2 .C2 .C2 .C2 |"^Second Subject, phase 1"!p! ([fa]4 [gb]2 [eg]2 | %247
 [df]2) z2 z4 | ([fa]4 [gb]2 [eg]2 | ([df]4) g2 e2) | d4- defg | .a2 .a2 .a2 .a2 | (b4 a4) | (^g8 | %254
 (=g4) f2) e2 | (d4 e4) |"^Phase 2" (dd')d'd' (d'c')ff | ([Be]b)bb ([db]a)dd | cdef (gb)ag | %259
 .f2 .[Ada]2 .[Bdb]2 .[dd']2 | .[Aa]2 .[Ada]2 .[Bdb]2 .[dd']2 | [Ada]2 [dd']a [dd']a[dd']a | %262
 [dd']2 [Bb]g [Bb]g[Bb]g | [Bb]2 [Gg]e [Gg]e[Gg]e | .[Fd]2 z2 .[EGc]2 z2 | .[DFd]2 z2 z4 | %266
"^Closing section, phase 1" z4 z2 a2- | a2 f2 d2 z2 | z4 z2 a2- | (a2 f2 d2) .d2 | (!>!d4 c2 e2 | %271
 d2 f2 a2) .d2 | (!>!d4 c2 e2 | d2 f2 a2) .^d2 | (e2 g2 b2) .^d2 | (e2 g2 a2 c'2 | %276
"^Phase 2" (d')c'ba d'c'ba) | ((^ga).b.a baba) | (d'c'ba d'c'ba) | ((^ga).b.a baba | %280
 (=g)fed cBA=G | .F2) .[DAd]2 .[DGB]2 .[Beg]2 | .[Adf]2 z2 .[EGc]2 z2 | %283
"^Phase 3, Coda"!ff! (DCDC DA,B,C | (D)CDC DA,B,C | D2) F,F G,GA,A | B,BCc DdEe | %287
 .[Ff]2 z2 .[dgb]2 z2 | .[dfa]2 z2 .[egac']2 z2 |!ff! [dfad']2 [dd'][dd'] [dd']2 [dd']2 | %290
 [Adfa]2 [Aa][Aa] [Aa]2 [Aa]2 | [FAdf]2 [Ff][Ff] [Ff]2 [Ff]2 | [Dd]4 [Dd]4 | [Dd]4 z4 |] %294
V:2
 [D,D]2 [D,D]7/4[D,D]/4 !fermata![A,A]4 | [D,D]2 [D,D]7/4[D,D]/4 !fermata![A,,A,]4 | %2
 [F,A,D]2 ([F,A,D]7/4[G,A,E]/4 [G,A,E]4) | [F,A,D]2 ([F,A,D]7/4[G,A,E]/4 [G,A,E]4) | %4
 [F,A,D]2 ([F,A,D]7/4[G,B,E]/4 [G,B,E]4) | (A,,3 B,,/>C,/) .C, z .[C,B,] z | %6
 [F,F]2 [F,F]7/4[F,F]/4 [Cc]4 | [F,F]2 [F,F]7/4[F,F]/4 [C,C]4 | _E2 (E7/4D/4 D4) | %9
[K:treble] F2 (F7/4=E/4 E4) | G2 (G7/4F/4 F2) F2 | z (B,/>A,/ (.A,).A,) z (G/>^F/ (.F).F) | %12
[K:bass] z ([^F,,^F,]/>[G,,G,]/ .[G,,G,])([B,,B,]/>[A,,A,]/ .[A,,A,]) z .[A,,A,] z | %13
 [D,D]2 [D,D]7/4[D,D]/4 [A,A]4 | [D,D]2 [D,D]7/4[D,D]/4 (G,,4 | %15
 A,,)[K:treble] (^g/>a/.a).a[K:bass] A,,[K:treble] (b/>a/.a).a || %16
[K:D][M:2/2][K:bass] (A,4 B,2 G,2 | F,6) z2 |[K:treble] [CG]8 | ([DF]6 C2 |[K:bass] B,4 A,4 | %21
 G,4 F,4 | E,6) .D,2 | (D,2 F,2 A,2) z2 | (A,4 B,2 G,2 | F,6) z2 |[K:treble] [CG]8 | [DF]8 | %28
[K:bass] [F,A,]2 [G,B,]4 [A,C]2- | [A,C]2 [B,D]4 [CE]2 | D2 .G,2 .A,2 .A,,2 | %31
 [D,,D,]2 [D,F,A,]2 [D,G,B,]2 [D,E,G,]2 | [D,F,A,]2 D,2 D,2 D,2 | %33
 D,,2 [D,F,A,]2 [D,G,B,]2 [D,E,G,]2 | [D,F,A,]2 D,2 D,2 D,2 | [D,,D,]2 [G,B,]4 [G,B,]2 | %36
 [D,,D,]2 [F,A,]4 [F,A,]2 | [D,,D,]2 [G,B,]4 [G,B,]2 | [D,,D,]2 [F,A,]4 [F,A,]2 | D2 D2 D2 D2 | %40
 D2 D2 D2 D2 | D2 D2 D2 D2 | D2 D2 D2 D2 | E,2 [E,G,B,]2 [E,G,B,]2 [E,G,B,]2 | %44
 [A,,C,E,A,]2 [A,,C,E,A,]2 [A,,C,E,A,]2 [A,,C,E,A,]2 | .[D,,D,]2 .[E,,E,]2 .[F,,F,]2 .[G,,G,]2 | %46
 .[A,,A,]2 .[B,,B,]2 .[C,C]2 .[D,D]2 | [E,E]2 [E,G,B,]2 [E,G,B,]2 [E,G,B,]2 | %48
 [A,,C,E,A,]2 [A,,C,E,A,]2 [A,,C,E,A,]2 [A,,C,E,A,]2 | D,2 [DF]2 [DF]2 [DF]2 | %50
 [CE]2 [CE]2 [CE]2 [CE]2 | [B,D]2 [B,D]2 [^G,B,]2 [G,B,]2 | [A,E]2 [A,E]2 [A,E]2 [A,E]2 | %53
 [DF]2 [DF]2 [E=G]2 [EG]2 | [DF]2 [DF]2 [EG]2 [EG]2 | [DF]2 [DF]2 [^DF]2 [DF]2 | E6 (^G,2 | %57
 A,2 B,2 C2 ^D2 | E4) z2 =DE | CDB,C A,CB,A, | E,E=DE CEA,E | E,F,D,E, C,E,A,,E, | %62
 E,,2 z2 [E,,E,]2 z2 | [E,,E,]2 z2 z4 | (E4 F2 D2 | C6) z2 |[K:treble] [^Gd]8 | ([Ac]6 ^G2 | %68
 F4 E4 | D4 (C4) |[K:bass] B,6 A,2 | E,6) z2 | z8 | ([CE]4 [DF]2 [B,D]2 | [A,C]4 [=G,B,]4 | %75
 [F,^A,]8) | (B,4 =C2 =A,2 | (E,4) F,2 D,2 | E,2) E,2 E,2 E,2 | [F,,F,]2 !>![F,F]4 [E,E]2 | %80
 [D,D]6 [C,C]2- | [C,C]2 [B,,B,]4 .[A,,A,]2 | .[^G,,^G,]2 .[A,,A,]2 .[G,,G,]2 .[A,,A,]2 | %83
 .[^G,,^G,]2 .[A,,A,]2 .[G,,G,]2 .[A,,A,]2 | [^G,,^G,]8 | [A,,A,]2 z2 [A,DF]2 [A,DF]2 | %86
 [A,CE]2 z2 [A,DF]2 [A,DF]2 | [A,CE]2 z2 [A,DF]2 [A,DF]2 | .[A,CE]2 .[C,C]2 .[A,,A,]2 .[E,,E,]2 | %89
 [C,,C,]8 | ^D,8 | [E,,E,]2 [CE]4 [E,^G,B,=D]2 | [E,A,C]2 [CE]4 [E,^G,B,D]2 | [A,C]2 D2 D2 D2 | %94
 D6- D2- | D2 [E,,E,]2 [E,,E,]2 [E,,E,]2 | [E,,E,]2 z2 [F,,F,]2 z2 | [D,,D,]2 z2 [E,,E,]2 z2 | %98
 !^!A,6!p! .[A,C]2 | .[B,D]2 .[DF]2 .[^G,B,]2 .[B,D]2 | (C2 E2 A2) .C2 | %101
 .[B,D]2 .[DF]2 .[^G,B,]2 .[B,D]2 | (C2 E2 A2) E2 | [D=F]8 | [CE]6 [CE]2 | [D=F]8 | [CE]6 C2 | %107
 [C,C]8 | [F,C]2 ^G2 F2 A2 |[K:treble] [B,FA]8 | [E^G]4[K:bass] [E,^G,B,]4 | %111
 A,2 ([C,E,]2 [D,F,]2) [D,F,]2 | .[C,E,]2 ([C,E,]2 [D,F,]2) [D,F,]2 | %113
 .[A,,C,E,]2 [A,,C,E,A,]2 [D,F,A,]2 [D,F,B,]2 | [E,C]2 [E,C]2 [E,D]2 [E,D]2 | [A,C]2 A,4 (F,D, | %116
 .A,,2) A,4 (F,D, | A,,4) z2 D,2 | .D.C.B,.A, ^G,4 | [A,,,A,,]2 [A,,E,]4 [A,,^G,]2 | %120
 [A,,A,]2 [A,,E,]4 [A,,^G,]2 | [A,,C,A,]2 z2 [A,,C,E,A,]2 z2 | [A,,C,E,A,]2 z2 z4 :| ([^A,E]8 | %124
 [B,D]8) |[K:treble] ([^Ae]8 | [=A^d]8) | (=G8 | A4 G4 | F4 E4) | %130
[K:bass] .[A,,A,]2 .[A,,A,]2 .[B,,B,]2 .[B,,B,]2 | ([=C,=C]4 [B,,B,]4) | %132
 .[A,,A,]2 .[A,,A,]2 .[B,,B,]2 .[B,,B,]2 | ([=C,=C]4 [B,,B,]4) | %134
 .[A,,A,]2 .[A,,A,]2 .[A,,A,]2 .[A,,A,]2 | .[^A,,^A,]2 .[A,,A,]2 .[A,,A,]2 .[A,,A,]2 | %136
 .[B,,B,]2 .[B,,B,]2 .[B,,B,]2 .[B,,B,]2 | ([=C,=C]4 [B,,B,]4) |[K:treble] .A2 .A2 .A2 .A2 | %139
 (B4 A4) |[K:bass] .[^G,,^G,]2 .[G,,G,]2 .[G,,G,]2 .[G,,G,]2 | ([A,,A,]4 [^G,,^G,]4) | %142
 .[F,,F,]2 .[F,,F,]2 .[F,,F,]2 .[F,,F,]2 | ([^G,,^G,]4 [F,,F,]4) | [E,,E,] z[K:treble] (E^G EGEG | %145
 F^GFG FGFG | E^GEG EGEG | (F)^GFG FGFG | E^GEG EGcG) | (^AcAc AcAc | ^GBGB GBGB) | (^GBGB GBGB | %152
 FAFA FAFA) | (FAFA FAFA | [E^G]2) z2 z2 [B,^DA]2 | [E^G]2 z2 z2 [B,^DA]2 | [E=G]2 z2 z2 [B,^DA]2 | %157
 [EG]2 z2 z2 [B,^DA]2 | EGEG EGEG | DFDF DFDF | =CECE CECE | B,DB,D B,DB,D | %162
[K:bass] A,=CA,C G,B,G,B, | F,A,F,A, E,G,E,G, | ^D,F,D,F, D,F,D,F, | %165
 .E,2 .[G,B,E]2 .[G,B,E]2 .[G,B,E]2 | B,8 |[K:treble] .[EGB]2 .[EGB]2 .[EGB]2 .[EGB]2 | B8 | %169
[K:bass] (G,2 B,2) .E2 .B,2 | (G,2 B,2) .E2 .B,2 | ([G,,D,]^E,[G,,D,]E,) ([G,,D,]E,[G,,D,]E,) | %172
 ([G,,D,]^E,[G,,D,]E,) ([G,,D,]E,[G,,D,]E,) | F,,F,F,,F, F,,F,F,,F, | F,,F,F,,F, F,,F,F,,F, | %175
 F,,F,F,,F, F,,F,F,,F, | F,,F,F,,F, F,,F,F,,F, | F,,F,^A,F, B,F,CF, | %178
 .B,2 .[D,F,B,]2 .[D,F,B,]2 .[D,F,B,]2 | F,8 |[K:treble] .[DF]2 .[DF]2 .[DF]2 .[DF]2 | %181
 ([EG]4 [DF]4) |[K:bass] [D,F,]2 [D,F,]2 [D,F,]2 [^D,B,]2 | [E,B,]2 [F,B,]2 [G,B,]2 [^G,B,]2 | %184
 A,2 A,,A, A,,A,A,,A, | A,,A,A,,A, A,,A,A,,A, | A,,A,A,,A, A,,A,A,,A, | %187
 A,,A,[A,,F,]A, [A,,E,]G,[A,,D,]F, | [A,,C,E,]A,[A,,C,E,]A, [A,,C,E,]A,[A,,C,E,]A, | %189
 [A,,C,E,]A,[A,,C,E,]A, [A,,C,E,]A,[A,,C,E,]A, | [A,,C,E,]2 [A,,,A,,]2 [A,,,A,,]2 [A,,,A,,]2 | %191
 [A,,,A,,]2 z2 !fermata!z4 | (A,4 B,2 G,2 | F,6) z2 |[K:treble] [CG]8 | ([DF]6 C2 | %196
[K:bass] B,4 A,4 | G,4 F,4 | E,6) .D,2 | (D,2 F,2 A,2) z2 |[K:treble] (F4 G2 E2 | %201
 D4-) D((.E.F.G)) | (.A2 .A2 .A2 .A2) | (B4 (A2) Bc | ([df]4) [ce]4 | [Bd]4 [Ac]4 | %206
 [GB]4 .[FA]2) .[EG]2 |[K:bass] [D,,D,]2 [D,F,A,]2 [D,G,B,]2 [D,E,G,]2 | [D,F,A,]2 D,2 D,2 D,2 | %209
 [D,,D,]2 [D,F,A,]2 [D,G,B,]2 [D,E,G,]2 | [D,F,A,]2 D,2 D,2 D,2 | [D,,D,]2 [G,B,]4 [G,B,]2 | %212
 [D,,D,]2 [F,A,]4 [F,A,]2 | [D,,D,]2 [G,B,]4 [G,B,]2 | [D,,D,]2 [F,A,]4 A,2 | D2 D2 D2 D2 | %216
 D2 D2 D2 D2 | D2 D2 D2 D2 | D2 D2 D2 D2 | [B,D]4 [B,D]2 [B,D]2 | C4 C2 C2 | [A,C]4 [A,C]2 [A,C]2 | %222
 B,4 B,2 B,2 | [G,B,]4 A,2 A,2 | [F,A,]4 ^G,2 G,2 | .[A,,A,]2 .B,2 .C2 .D2 | .E2 .F2 .=G2 .E2 | %227
 F,A,DA, F,A,F,A, | G,A,G,A, F,A,F,A, | F,A,DA, F,A,F,A, | G,A,G,A, F,A,F,A, | G,A,F,A, G,A,F,A, | %232
 G,A,F,A, G,A,F,A, | .[E,G,]2 z2 .[DF]2 z2 | .[CE]2 z2 .[B,D]2 z2 | .[A,C]2 z2 z4 | %236
 .[G,B,]2 z2 z4 |[K:treble] .[FA]2 .[FA]2 .[FA]2 .[FA]2 | ([A=c]4 [GB]4) | %239
 .[EG]2 .[EG]2 .[EG]2 .[EG]2 | ([G_B]4 [FA]4) | z8 | z8 | [F,,D,]2 z2 z4 | [G,,D,]2 z2 z4 | %245
 [A,,G,]2 z2 z4 | [D,F,D]2 z2 z4 |[K:treble] ([FA]4 [GB]2 [EG]2 | [DF]2) z2 z4 | (A4 B2 G2 | %250
 ([FA]4) [GB]2 [EG]2 | ([DF]4) [=CE]4 | [B,^D]8) | (E4 =F2 =D2 |[K:bass] [A,E]4 [B,D]2) G,2 | %255
 A,2 A,2 A,,2 (A,,2 | [B,,D,]2) B,2 A,2 A,,2 | G,,2 G,2 F,2 F,,2 | %258
 [E,,E,]2 [D,,D,]2 [C,,C,]2 [C,C]2 | .[D,D]2 F,D, G,D,B,G, | F,D,F,D, G,D,B,G, | %261
 F,2 [F,A,D]2 [F,A,D]2 [F,A,D]2 | [G,B,D]2 [G,B,D]2 [G,B,D]2 [G,B,D]2 | %263
 [G,B,D]2 [G,,B,,E,]2 [G,,B,,E,]2 [G,,B,,E,]2 | .[A,,D,A,]2 z2 .[A,,,A,,]2 z2 | %265
 D,6[K:treble]!p! [DF]2 | .[EG]2 .[GB]2 .[CE]2 .[EG]2 | [DF]6 .[DF]2 | %268
 .[EG]2 .[GB]2 .[CE]2 .[EG]2 | [DF]6 [FA]2 | ([G_B]8 | [FA]6) [FA]2 | ([G_B]8 | [FA]8) | [G=B]8 | %275
 C6 E2 |[K:bass] .[F,A,D]2 .[F,A,D]2 .[F,A,D]2 .[F,A,D]2 | ([=G,CE]4 [F,D]4) | %278
 .[F,A,D]2 .[F,A,D]2 .[F,A,D]2 .[F,A,D]2 | ([=G,CE]4 [F,D]4) | (E,2 [G,B,]2) .[A,C]2 .[CE]2 | %281
 .D2 .[F,,F,]2 .[G,,G,]2 .[E,,E,]2 | .[A,,A,]2 z2 .[A,,,A,,]2 z2 | (D,C,D,C, D,A,,B,,C, | %284
 (D,)C,D,C, D,A,,B,,C, | D,2) [D,,D,]2 [E,,E,]2 [F,,F,]2 | [G,,G,]2 [A,,A,]2 [B,,B,]2 [C,C]2 | %287
 .[D,D]2 z2 .[G,,G,]2 z2 | .[A,,A,]2 z2 .[A,,,A,,]2 z2 | D,,D,D,,D, D,,D,D,,D, | %290
 D,,D,D,,D, D,,D,D,,D, | D,,D,D,,D, D,,D,D,,D, | [D,,D,]4 [D,,D,]4 | [D,,D,]4 z4 |] %294
V:3
 x8 | x8 | x8 | x8 | x8 | [EG]([EGB]/>[FA]/ [FA])([DG]/>[CF]/ [CF]) x E x | x8 | x8 | x8 | x8 | %10
 x8 | [eg]4 (_e2 d2) | [db]3 x5 | x8 | x4 (G,2 [B,_E]2 | [A,D]4) (([A,D]2 [G,^C]2)) || %16
[K:D][M:2/2] x8 | x8 | x8 | x8 | A2 G4 F2- | F2 E4 D2 | C6 D2 | x8 | x8 | x8 | x8 | x8 | x8 | x8 | %30
 x8 | x8 | x8 | x8 | x8 | x8 | x8 | x8 | x8 | d2 dd d2 d2 | x8 | d2 dd d2 d2 | x8 | x8 | x8 | x8 | %46
 x8 | x8 | x8 | x8 | x8 | x8 | x8 | [Bf]4 [c=g]4 | [Bf]4 [cg]4 | x8 | x8 | x8 | x8 | x8 | x8 | x8 | %62
 x8 | x8 | x8 | x8 | x8 | x8 | e2 d4 c2- | c2 B4 A2 | ^G6 A2 | x8 | x8 | x8 | x8 | x8 | x8 | %77
 ([^GB]4 A2) F=D | C4 [E^G]4 | x8 | x8 | x8 | B2 c2 B2 c2 | B2 c2 B2 c2 | B8 | x8 | x8 | x8 | x8 | %89
 x8 | x8 | x8 | x8 | x8 | x8 | x8 | x8 | x8 | x8 | x8 | x8 | x8 | x8 | x8 | x8 | x8 | x6 A2 | %107
 (A4 ^G2 B2) | x8 | x8 | x8 | x8 | x8 | x8 | x4 ^G4 | x8 | x8 | x8 | x8 | x8 | x8 | x8 | x8 :| x8 | %124
 x8 | x8 | x8 | e8- | e2 f4 e2- | e2 ^d4 e2 | x8 | [ef]8 | [ef]8 | [ef]8 | x8 | ^c'8 | x8 | x8 | %138
 ^dfbf dfdf | ^dfdf dfdf | ^dfaf dfdf | ^dfdf dfdf | ^dfaf dfdf | ^dfdf dfdf | x8 | x8 | x8 | x8 | %148
 x8 | x8 | x8 | x8 | x8 | x8 | x8 | x8 | x8 | x8 | x8 | x8 | x8 | x8 | x8 | x8 | x8 | x8 | x8 | %167
 x8 | x8 | x8 | x8 | x8 | x8 | x8 | x8 | x8 | x8 | x8 | x8 | x8 | x8 | x8 | x8 | x8 | x8 | x8 | %186
 [eg]8 | x8 | x8 | x8 | x8 | x8 | x8 | x8 | x8 | x8 | A2 G4 F2- | F2 E4 D2 | C6 D2 | x8 | x8 | %201
 z4 d4- | d4 c4 | (d4 (c2) de | f4) z4 | x8 | x8 | x8 | x8 | x8 | x8 | x8 | x8 | x8 | x8 | %215
 d2 dd d2 d2 | x8 | d2 dd d2 d2 | x8 | x8 | x8 | x8 | x8 | x8 | x8 | x8 | x8 | x8 | x8 | x8 | x8 | %231
 x8 | x8 | x8 | x8 | x8 | x8 | x8 | x8 | x8 | x8 | x8 | x8 | x8 | x8 | x8 | x8 | x8 | x8 | x8 | %250
 x8 | x8 | x8 | (B8 | (c4) d2) (B=G | F4 [Gc]4) | x8 | x8 | x8 | x8 | x8 | x8 | x8 | x8 | x8 | x8 | %266
 x8 | x8 | x8 | x8 | x8 | x8 | x8 | x8 | x8 | x8 | x8 | x8 | x8 | x8 | x8 | x8 | x8 | x8 | x8 | %285
 x8 | x8 | x8 | x8 | x8 | x8 | x8 | x8 | x8 |] %294
V:4
 x8 | x8 | x8 | x8 | x8 | x8 | x8 | x8 | [A,C]2 [A,C]2 [A,C]4 |[K:treble] [=B,D]2 [B,D]2 [B,D]4 | %10
 [^CE]2 [CE]2 D2 D2 | x8 |[K:bass] x8 | x8 | x8 | x[K:treble] x3[K:bass] x[K:treble] x3 || %16
[K:D][M:2/2][K:bass] D,8- | D,6 x2 |[K:treble] x8 | x8 |[K:bass] x8 | x8 | x8 | A,,6 x2 | D,8- | %25
 D,6 x2 |[K:treble] x8 | x8 |[K:bass] x8 | x8 | x8 | x8 | x8 | x8 | x8 | x2 D,2 D,2 D,2 | %36
 x2 D,2 D,2 D,2 | x2 D,2 D,2 D,2 | x2 D,2 D,2 D,2 | B,6 ^A,2 | B,2 =A,2 G,2 F,2 | G,6 F,2 | %42
 G,2 F,2 E,2 D,2 | x8 | x8 | x8 | x8 | x8 | x8 | x8 | x8 | x8 | x8 | x8 | x8 | x8 | E,8- | E,8- | %58
 E,4 z4 | E,8 | x8 | x8 | x8 | x8 | A,8 | A,6 x2 |[K:treble] x8 | x8 | x8 | x8 |[K:bass] x8 | x8 | %72
 x8 | x8 | x8 | x8 | x8 | x8 | x8 | x8 | x8 | x8 | x8 | x8 | x8 | x8 | x8 | x8 | x8 | x8 | x8 | %91
 x8 | x8 | E,2 E,6- | E,2 E,2 E,2 E,2 | E,2 x6 | x8 | x8 | A,,2 x6 | x8 | A,6 A,2 | x8 | A,6 C2 | %103
 x8 | x8 | x8 | x8 | x8 | x8 |[K:treble] x8 | x4[K:bass] x4 | A,,2 A,,4 z2 | A,,2 A,,4 z2 | x8 | %114
 x8 | x8 | x8 | x8 | E,4 E,4 | x8 | x8 | x8 | x8 :| x8 | x8 |[K:treble] x8 | x8 | x8 | x8 | x8 | %130
[K:bass] x8 | x8 | x8 | x8 | x8 | x8 | x8 | x8 |[K:treble] x8 | x8 |[K:bass] x8 | x8 | x8 | x8 | %144
 x2[K:treble] x6 | x8 | x8 | x8 | x8 | ^D8 | ^G2 z2 z4 | C8 | F2 z2 z4 | B,8 | x8 | x8 | x8 | x8 | %158
 x8 | x8 | x8 | x8 |[K:bass] x8 | x8 | x8 | x8 | ([A,F]4 [G,E]4) |[K:treble] x8 | ([FA]4 [EG]4) | %169
[K:bass] G,8 | G,8 | x8 | x8 | x8 | x8 | x8 | x8 | x8 | x8 | ([E,C]4 [D,B,]4) |[K:treble] x8 | x8 | %182
[K:bass] x8 | x8 | x8 | x8 | x8 | x8 | x8 | x8 | x8 | x8 | D,8- | D,6 x2 |[K:treble] x8 | x8 | %196
[K:bass] x8 | x8 | x8 | A,,6 x2 |[K:treble] x8 | x8 | x8 | x8 | x8 | x8 | x8 |[K:bass] x8 | x8 | %209
 x8 | x8 | x2 D,2 D,2 D,2 | x2 D,2 D,2 D,2 | x2 D,2 D,2 D,2 | x2 D,2 D,2 D,2 | B,6 ^A,2 | %216
 B,2 =A,2 G,2 F,2 | G,6 F,2 | G,2 F,2 E,2 D,2 | E,2 E,2 E,2 E,2 | A,2 A,2 A,2 A,2 | %221
 D,2 D,2 D,2 D,2 | G,2 G,2 G,2 G,2 | C,2 C,2 F,2 F,2 | B,,2 B,,2 E,2 E,2 | x8 | x8 | x8 | x8 | x8 | %230
 x8 | x8 | x8 | x8 | x8 | x8 | x8 |[K:treble] x8 | x8 | x8 | x8 | x8 | x8 | x8 | x8 | x8 | x8 | %247
[K:treble] x8 | x8 | x8 | x8 | x8 | x8 | x8 |[K:bass] x8 | x8 | x8 | x8 | x8 | x8 | x8 | x8 | x8 | %263
 x8 | x8 | D,,2 z2 z2[K:treble] z2 | x8 | x8 | x8 | x8 | x8 | x8 | x8 | x8 | x8 | x8 |[K:bass] x8 | %277
 A,8 | x8 | A,8 | x8 | x8 | x8 | x8 | x8 | x8 | x8 | x8 | x8 | x8 | x8 | x8 | x8 | x8 |] %294
V:5
"Dpower" [DA]4"Apower" [EA]4 |"Dpower" [DA]4"Apower" [EA]4 |"Dm/F" [FAd]4"A7/G" [EGA^c]4 | %3
"Dm/F" [FAd]4"A7/G" [EGA^c]4 |"Dm/F" [FAd]4"C7/G" [EGB=c]4 | %5
"F/A" [FAc]2"Gm/Bb" [DGB]2"F/C" [CFA]2"C7" [B,CEG]2 |"Fpower" [Fc]4"Cpower" [Gc]4 | %7
"Fpower" [Fc]4"Cpower" [Gc]4 |"Adim" [C_EG]4"D7/A" [CD^F]4 |"Bdim" [D=F]4"E7/B" [D=E^G]4 | %10
"C#dim7" B2"A7/C#" A2"Dm" A4 |"Em7b5/Bb" d2"A7" ^c2"Adim/G""D7/F#" [A=c]4 | %12
"Gm" B2"Edim/G" G2"Dm/A" F2"A7" =E2 |"Dpower" [DA]4"Apower" [EA]4 | %14
"Dpower" [DA]4"Gpower""Eb/G" G4 |"Dm/A" [DF]4"Asus4""A7" =E4 ||[K:D][M:2/2]"D" F4"C#dim/G" G4 | %17
"D" [A,DF]8 |"A7/C#" ([EGA]8 |"D" [DFA]8) |"G/B" [Gd]4"F#m/A" [Fc]4 |"Em/G" [EB]4"D/F#" [DA]4 | %22
"C#dim/E" [CEG]4"D" [DF]4 |"D/A" [DF]4"A" [CE]4 |"D" F4"C#dim/G" G4 |"D" [A,DF]8 |"A7/C#" [EGA]8 | %27
"D" [DFA]8 |"D/F#" [FAd]4"Em/G" [GBe]4 |"F#m/A" f4"G/B" g4 | %30
"D" [Adf]2"Em/G" [GBe]2"D/A" [FAd]2"A" [EAc]2 |"D""G/D" d8 |"D" [Ad]8 |"D""G/D" d8 |"D" [Ad]8 | %35
"G/D" [GBd]8 |"D" [Ad]8 |"G/D" [GBd]8 |"D" [Ad]8 |"G/B" [GBd]8- | [GBd]8 |"G" [DGB]8- | [DGB]8 | %43
"Em7" [B,DG]8 |"A7" [A,CEG]8 |"D" [A,DF]8 | [Adf]8 |"Em7" [Bdg]8 |"A7" [Aceg]8 | %49
"Bm/D" [Bdf]4 [DFB]4 |"A/C#" [CEA]8 |"G#dim/B" [B,D^G]4"G#dim" [DGB]4 |"A" [CEA]8 | %53
"Bm/D" [DFB]4"A#dim7/E" [CG^A]4 |"Bm/D" [DFB]4"A#dim7/E" [CG^A]4 |"Bm/D" [DFB]4"B7/D#" [B,F=A]4 | %56
"E" [B,E^G]8 |"A/E" [CEA]8 |"E" [B,E^G]8 |"A/E" [CEA]8 |"E" [B,E^G]4"A/E" [CEA]4 | %61
"E" [B,E^G]4"A/E" [CEA]4 |"E" [B,E^G]8- | [B,EG]8 |"A" c4"G#dim/D" d4 |"A" [EAc]8 |"E7/G#" [Bde]8 | %67
"A" [Ace]8 |"D/F#" [da]4"C#m/E" [c^g]4 |"Bm/D" [Bf]4"A/C#" [Ae]4 |"G#dim/B" [^Gd]4"A" [Ac]4 | %71
"A/E" [Ac]4"E" [^GB]4 |"A/E" c4"E" B4 |"A" [CEA]4"Bm7/A" [DFAB]2"E7/A" [DE^GB]2 | %74
"A" [Ace]4"Em/G" [=GBe]4 |"F#" [^Acf]4"F#7" [Ace]4 |"B7" [F=A^d]8 | %77
"E" e2"E7" =d2"F#m" [FAc]2"Bm/D" [=DFB]2 |"A/E" [CEA]4"E" [E^GB]4 |"D/F#" [da]4"C#m/E" [c^g]4 | %80
"Bm/D" [Bf]4"A/C#" [Ae]4 |"G#dim/B" [^Gd]4"A" [Ac]4 |"E/G#" B2 [EBe]6- | [EBe]8 | %84
"E/G#" [EBe]4"E7/G#" [EBd]4 |"A" [EAc]4"D/A" [FAd]4 |"A" [EAc]4"D/A" [FAd]4 | %87
"A" [EAc]4"D/A" [FAd]4 |"A" [EAc]8 | [CEA]8 | [B,FA]8 |"A/E" [Ace]4"E7" [^GBde]4 | %92
"A/E" [Ace]4"E7" [^GBde]4 |"A/E" [Ace]2"Bm/E" [FBd]6 |"Bm/E" [FBd]8 |"E7" [^GBd]8 | %96
"E7" [^GBd]4"F#m" [Ac]4 |"Bm/D" [DFB]4"E7" [D^GB]4 |"A" [EA]8 |"Bm/D" [DFB]4"E7" [D^GB]4 | %100
"A" [CEA]8 |"Bm/D" [DFB]4"E7" [D^GB]4 |"A" [CEA]8 |"G#dim7/D" [=F^GB]8 |"A/C#" [EA]8 | %105
"G#dim7/D" [=F^GB]8 |"A/C#" [EA]8 |"C#7" [C^E^GB]8 |"F#m" [CFA]8 |"B7" [^DFA]8 |"E""E7" [B,^G]8 | %111
"A" ([CEA]4"D/A" [DFA]4 |"A" ([CEA]4)"D/A" [DFA]4 |"A" [CEA]4)"D" [DFA]2"Bm/D" [DFB]2 | %114
"A/E" ([EAc]4"E7" [D^GB]4 |"A""D/A" A8) |"A""D/A" A8 |"A" A6"Bm/D" [DFB]2 | %118
"A/E" [CEA]4"E" [B,E^G]4 |"A" [CEA]6"E" [B,E^G]2 |"A" [CEA]6"E" [B,E^G]2 |"A" [CEA]8- | %122
 [CEA]4 z4 :|"F#7/A#" [CEF]8 |"Bm" [DF]8 |"F#7/A#" [cef]8 |"D#dim/A" [^df]8 |"Em/G" [Be]4 [eb]4 | %128
"F#dim/A" [f=c']4"Em/G" [eb]4 |"D#dim/F#" [^da]4"Em" [eeg]4 |"F#m7b5/A" f8 |"F#m7b5/C" a8 | %132
"F#m7b5/A" =c'8 |"F#m7b5/C" a8 |"F#m7b5/A" =c'8 |"A#dim7" ^c'8 |"B" b8- | b8 |"B/A" b8- | b8 | %140
"G#7" [^df^b]8- | [dfb]8 |"G#/F#" [^d^g^b]8- | [dgb]8 |"C#m/E" [e^gc']4 [^Gce]4 | %145
"G#/F#" [^G^B^d]8 |"C#m/E" [^Gce]8 |"G#/F#" [^G^B^d]8 |"C#m/E" [^Gce]8 |"D#7" [^Ac^^f]8 | %150
"G#m" [B^d^g]8 |"C#7" [^GB^e]8 |"F#m" [Acf]8 |"B7" [FA^d]8 |"E" [^GBe]6"B7" [^FAB^d]2 | %155
"E" [^GBe]6"B7" [^FAB^d]2 |"Em" [=GBe]6"B7" [^FAB^d]2 |"Em" [=GBe]6"B7" [^FAB^d]2 | %158
"C/E" [G=ce]2 [eg=c']6 |"Bm/D" [dfb]8 |"Am/C" [=cea]8 |"G/B" [Bdg]8 | %162
"F#dim/A" [A=cf]4"Em/G" [GBe]4 |"D#dim/F#" [FA^d]4"C/E" [EG=c]4 |"B/D#" [^DFB]8 |"Em" [EGB]8 | %166
"B7/A" [^DFB]4"Em/G" [EGB]4 |"Em" [EGB]8 |"B7/A" [^DFB]4"Em/G" [EGB]4 |"Em/G" [EGB]8- | [EGB]8 | %171
"G7" [^EBd]8- | [EBd]8 |"F#" [F^Ac]8 |"G/F#" [Bd=g]4"F#" [^Acf]4 |"Bm/F#" [dfb]4"F#7" [ce^a]4 | %176
"E#dim7/F#" [^e^gbd']8 |"F#7" [=e^ac']8 |"Bm/D" [dfb]8 |"F#7/E" [cf^a]4"Bm/D" [dfb]4 | %180
"Bm/D" [dfb]8 |"A#dim7/E" [c^a]4"Bm/D" [dfb]4 |"Bm/D" [dfb]6"B7/D#" [Bf=a]2 | %183
"Em" [Beg]2"Bm/F#" [Bdf]2"Em/G" [GBe]2"G#dim" [^GBd]2 |"A" [EAc]4 [CEA]4 | %185
"Bb/A" [D=F_B]4"B/A" [^D^F=B]4 |"Am7" =c4"A7" ^c4 |"D/A" d2 ^d2 e2 f2 |"A7" [Aceg]8- | [Aceg]8- | %190
 [Aceg]8- | [Aceg]2 z2 z4 |"D" F4"C#dim/G" G4 |"D" [A,DF]8 |"A7/C#" ([EGA]8 |"D" [DFA]8) | %196
"G/B" [Gd]4"F#m/A" [Fc]4 |"Em/G" [EB]4"D/F#" [DA]4 |"C#dim/E" [CEG]4"D" [DF]4 | %199
"D/A" [DF]4"A" [CE]4 |"D" [fa]4"C#dim/E" [gb]4 |"D" [Adf]8 |"A" [ce]4 [cea]4 | %203
"G#dim/B" [d^g]4"A" [cea]4 |"Bm/D" [fb]4"A/C#" [ea]4 |"G/B" [dg]4"F#m/A" [cf]4 | %206
"Em/G" [GBe]4"D/A" [FAd]2"A" [EAc]2 |"D" [FAd]4"G/D" [GBd]4 |"D" [FAd]8 | [FAd]4"G/D" [GBd]4 | %210
"D" [Ad]8 |"G/D" [GBd]8 |"D" [Ad]8 |"G/D" [GBd]8 |"D" [Ad]8 |"G/B" [GBd]8- | [GBd]8 |"G" [DGB]8- | %218
 [DGB]8 |"Em7" [B,DG]8 |"A7" [A,CEG]8 |"Dmaj7" [A,CF]8 |"Gmaj7" [B,DF]8 | %223
"C#m7b5" [G,B,E]4"F#m7" [A,CE]4 |"Bm7" [F,A,D]4"E7" [^G,B,D]4 |"A" [E,A,C]8 |"A7" [EGc]8 | %227
"D/F#" [FAd]8 |"A7/G" [Ace]4"D/F#" [Ad]4 |"D/F#" [FAd]8 |"A7/G" [Ace]4"D/F#" [Ad]4 | %231
"A7/G" [Ace]2"D/F#" [Ad]2"A7/G" [Ace]2"D/F#" [Ad]2 | %232
"A7/G" [Ace]2"D/F#" [Ad]2"A7/G" [Ace]2"D/F#" [Ad]2 |"C#dim/E" [EGc]4"Bm/D" [FB]4 | %234
"A/C#" [EA]4"G/B" [DG]4 |"F#m/A" [CF]8 |"Em/G" [G,B,E]8 |"D#dim7/F#" [A,^DF]8- | %238
 [F,A,DF]4"Em/G" [B,E]4 |"C#dim7/E" [G,_B,^C]8- | [G,B,C]4"D/F#" [A,D]4 | z8 | z8 |"D/F#" [DFA]8 | %244
"G" [DGB]8 |"A7" [EGc]8 |"D" [FA]4"C#other/E" [GB]4 |"D" [FA]4"C#other/E" [GB]4 | %248
"D" [FA]4"C#other/E" [GB]4 |"D" [FA]4"C#other/E" [GB]4 |"D" [FA]4"C#other/E" [GB]4 | %251
"D" [dfa]4"Am/C" [ea]4 |"B" [^db]4"B7" [da]4 |"E" [Be^g]4"Ddim7" [B=fg]4 | %254
"A7" [ce=g]4"Bm" [Bd^f]2 [=GBe]2 |"D/A" [FAd]4"A" [EAc]4 |"Bm" d2 d'2"F#m/A" [fc']4 | %257
"Em/G" [eb]4"D/F#" [da]4 |"C#dim/E" [cg]4"C#dim" [eg]4 |"D" [Adf]4"G/D" [Bdg]4 | %260
"D" [Adf]4"G/D" [Bdg]4 |"D/F#" [Adf]8 |"G" [Bdg]8 |"Em/G" [Beg]8 |"D/A" [Adf]4"A7" [Gce]4 | %265
"D" [FAd]8 |"Em/G" [GBe]4"A7" [Gce]4 |"D" [FAd]8 |"Em/G" [GBe]4"A7" [Gce]4 |"D" [FAd]8 | %270
"Gm" [G_Bd]4"C#dim/G" [GBce]4 |"D/F#" [Adf]8 |"Gm" [G_Bd]4"C#dim/G" [GBce]4 |"D/F#" [Adf]8 | %274
"Em/G" [Beg]8 |"A7" [Aceg]8 |"D/F#" [Adf]8 |"A7/G""D/F#" a8 |"D/F#" [dfa]8 |"A7/G""D/F#" a8 | %280
"Em" [eg]4"A7" [eg]4 |"D" [df]4"G""Em/G" [Bg]4 |"D/A" [Adf]4"A7" [Gce]4 |"D" [FAd]4 z4 | [Dd]4 z4 | %285
 [Dd]2 F2 G2 A2 | B2 c2 d2 e2 |"D" [Adf]4"G" [dgb]4 |"D/A" [dfa]4"A7" [egac']4 |"D" [dfad']8 | %290
 [Adfa]8 | [FAdf]8 | [Dd]4 [Dd]4 | [Dd]4 z4 |] %294
V:6
 D,4 A,4 | D,4 A,,4 | F,4 G,4 | F,4 G,4 | F,4 G,4 | A,2 B,2 C2 C,2 | F,4 C4 | F,4 C,4 | A,8 | %9
 =B,8 | ^C4 D4 | B,2 A,2 G,2 ^F,2 | G,2 B,2 A,2 A,,2 | D,4 A,4 | D,4 G,,4 | A,,8 || %16
[K:D][M:2/2] [D,A,]4 [G,B,]4 | [D,F,]8 | C,8 | D,8 | B,4 A,4 | G,4 F,4 | E,4 D,4 | A,8 | %24
 D,4 [G,B,]4 | D,8 | C,8 | D,8 | F,4 G,4 | A,4 B,2 C2 | D2 G,2 A,4 | D,8 | D,8 | D,8 | D,8 | D,8 | %36
 D,8 | D,8 | D,8 | B,8- | B,8 | G,8- | G,8 | E,8 | A,,8 | D,,8 | D,8 | E,8 | A,,8 | D,8 | C,8 | %51
 B,,4 ^G,,4 | A,,8 | D,4 E,4 | D,4 E,4 | D,4 ^D,4 | E,8 | E,8 | E,8 | E,8 | E,8 | E,8 | E,8- | %63
 E,8 | [A,E]4 [DF]4 | A,8 | ^G,8 | A,8 | F4 E4 | D4 C4 | B,4 A,4 | E,8 | z8 | A,8 | A,4 G,4 | F,8 | %76
 B,8 | E,4 F,2 D,2 | E,8 | F,4 E,4 | D,4 C,4 | B,,4 A,,4 | ^G,,8- | G,,8 | ^G,,4 G,,4 | A,,8 | %86
 A,,8 | A,,8 | A,,8 | C,8 | ^D,8 | E,8- | E,8- | E,8- | E,8- | E,8- | E,4 F,4 | D,4 E,4 | A,,8 | %99
 D,4 E,4 | A,8 | D,4 E,4 | A,8 | D8 | C8 | D8 | C8 | C8 | F,8 | B,8 | E,8 | A,8 | A,8 | A,4 D,4 | %114
 E,8 | A,,8- | A,,8- | A,,6 D,2 | E,8 | A,,6 E,2 | A,,6 E,2 | A,,8- | A,,4 z4 :| ^A,8 | B,8 | %125
[K:treble] ^A8 | =A8 | G8 | A4 G4 | F4 E4 |[K:bass] A,8 | =C8 | A,8 | =C8 | A,8 | ^A,8 | B,8- | %137
 B,8 | A,8- | A,8 | ^G,8- | G,8 | F,8- | F,8 | E,8 | F,8 | E,8 | F,8 | E,8 | ^D,8 | ^G,8 | C,8 | %152
 F,8 | B,,8 | E,6 B,,2 | E,6 B,,2 | E,6 B,,2 | E,6 B,2 | E8 | D8 | =C8 | B,8 | A,4 G,4 | F,4 E,4 | %164
 ^D,8 | E,8 | A,4 G,4 | E,8 | A,4 G,4 | G,8- | G,8 | G,8- | G,8 | F,8- | F,8- | F,8 | F,8 | F,8 | %178
 D,8 | E,4 D,4 | D,8 | E,4 D,4 | D,6 ^D,2 | E,2 F,2 G,2 ^G,2 | A,8 | A,8 | A,8 | A,8 | A,8- | %189
 A,8- | A,8- | A,2 z2 z4 | [D,A,]4 [G,B,]4 | [D,F,]8 | C,8 | D,8 | B,4 A,4 | G,4 F,4 | E,4 D,4 | %199
 A,8 |[K:treble] F4 [EG]4 | D8 | A8 | B4 A4 | D4 C4 | B,4 A,4 | G,4 A,4 |[K:bass] D,8 | D,8- | %209
 D,8 | D,8 | D,8 | D,8 | D,8 | D,8 | B,8- | B,8 | G,8- | G,8 | E,8 | A,,8 | D,8 | G,8 | C,4 F,4 | %224
 B,,4 E,4 | A,,8 | A,8 | F,8 | G,4 F,4 | F,8 | G,4 F,4 | G,2 F,2 G,2 F,2 | G,2 F,2 G,2 F,2 | %233
 E,4 D4 | C4 B,4 | A,8 | G,8 | F,8- | F,4 G,4 | E,8- | E,4 F,4 | z8 | z8 | F,8 | G,8 | A,8 | %246
 D,4 E,4 | D,4 E,4 | D,4 E,4 | D,4 E,4 | D,4 E,4 | D4 =C4 | B,8 | E,4 D,4 | A,4 B,2 G,2 | A,8 | %256
 B,4 A,4 | G,4 F,4 | E,4 C,4 | D,8 | D,8 | F,8 | G,8 | G,8 | A,4 A,,4 | D,8 | G,4 A,4 | D,8 | %268
 G,4 A,4 | D,8 | G,8 | F,8 | G,8 | F,8 | G,8 | A,8 | F,8 | G,4 F,4 | F,8 | G,4 F,4 | E,4 A,4 | %281
 D,4 G,4 | A,4 A,,4 | D,4 z4 | D,4 z4 | D,2 D,2 E,2 F,2 | G,2 A,2 B,2 C2 | D4 G,4 | A,4 A,,4 | %289
 D,8- | D,8- | D,8 | D,4 D,4 | D,4 z4 |] %294
V:7
 x8 | x8 | x8 | x8 | x8 | x8 | x8 | x8 | x8 | x8 | [E=G]4 F4 | [EG]4 _E2 D2 | [DG]2 =E2 D2 ^C2 | %13
 x8 | x4 G,2 [B,_E]2 | A,4 [A,D]2 [G,^C]2 ||[K:D][M:2/2] D4 [CE]4 | x8 | x8 | x8 | x8 | x8 | x8 | %23
 x8 | [A,D]4 [CE]4 | x8 | x8 | x8 | x8 | [Ac]4 [Bd]2 [Ae]2 | x8 | [FA]4 [GB]4 | F8 | [FA]4 [GB]4 | %34
 F8 | x8 | F8 | x8 | F8 | x8 | x8 | x8 | x8 | x8 | x8 | x8 | x8 | x8 | x8 | x8 | x8 | x8 | x8 | %53
 x8 | x8 | x8 | x8 | x8 | x8 | x8 | x8 | x8 | x8 | x8 | A4 [^GB]4 | x8 | x8 | x8 | x8 | x8 | x8 | %71
 x8 | x8 | x8 | x8 | x8 | x8 | [E^GB]4 x4 | x8 | x8 | x8 | x4 E2 F2 | E2 x6 | x8 | x8 | x8 | x8 | %87
 x8 | x8 | x8 | x8 | x8 | x8 | x8 | x8 | x8 | x8 | x8 | C8 | x8 | x8 | x8 | x8 | x8 | x8 | x8 | %106
 x8 | x8 | x8 | x8 | E4 =D4 | x8 | x8 | x8 | x8 | [CE]4 [DF]4 | [CE]4 [DF]4 | [CE]6 x2 | x8 | x8 | %120
 x8 | x8 | x8 :| x8 | x8 | x8 | x8 | x8 | x8 | x8 | [=ce]8 | [ef]8 | [ef]8 | [ef]8 | [ef]8 | %135
 [eg]8 | [^df]8- | [df]8 | [^df]8- | [df]8 | x8 | x8 | x8 | x8 | x8 | x8 | x8 | x8 | x8 | x8 | x8 | %151
 x8 | x8 | x8 | x8 | x8 | x8 | x8 | x8 | x8 | x8 | x8 | x8 | x8 | x8 | x8 | x8 | x8 | x8 | x8 | %170
 x8 | x8 | x8 | x8 | x8 | x8 | x8 | x8 | x8 | x8 | x8 | x8 | x8 | x8 | x8 | x8 | [EG]8 | %187
 [FA]4 [EG]2 F2 | x8 | x8 | x8 | x8 | D4 [CE]4 | x8 | x8 | x8 | x8 | x8 | x8 | x8 | d4 [ce]4 | x8 | %202
 x8 | x8 | x8 | x8 | x8 | x8 | x8 | x8 | F8 | x8 | F8 | x8 | F8 | x8 | x8 | x8 | x8 | x8 | x8 | %221
 x8 | x8 | x8 | x8 | x8 | x8 | x8 | x8 | x8 | x8 | x8 | x8 | x8 | x8 | x8 | x8 | x8 | x8 | x8 | %240
 x8 | x8 | x8 | x8 | x8 | x8 | D4 [CE]4 | D4 [CE]4 | D4 [CE]4 | D4 [CE]4 | D4 [CE]4 | x8 | x8 | %253
 x8 | x8 | x8 | x8 | x8 | x8 | x8 | x8 | x8 | x8 | x8 | x8 | x8 | x8 | x8 | x8 | x8 | x8 | x8 | %272
 x8 | x8 | x8 | x8 | x8 | [ce]4 [df]4 | x8 | [ce]4 [df]4 | B4 [Ac]4 | A4 d2 e2 | x8 | x8 | x8 | %285
 x8 | x8 | x8 | x8 | x8 | x8 | x8 | x8 | x8 |] %294
V:8
[K:Dmin] D4 A4 | D4 A4 | [FAd]4 [GA^ce]4 | [FAd]4 [GA^ce]4 | [FAd]4 [GB=ce]4 | %5
w: d:~i[no3no5] V[no3no5]|d:~i[no3no5] V[no3no5]|i6 V42|i6 V42|i6 F:~V43|
 [Acf]2 [Bdf]2 [cfa]2 [cegb]2 | F4 c4 | F4 c4 | [Ac_e]4 [Acd^f]4 | [=Bd=f]4 [Bd=e^g]4 | %10
w: I6 IV I64 V7|I[no3no5] V[no3no5]|I[no3no5] V[no3no5]|g:~iio V43|a:~iio V43|
 [^c=e=g_b]2 [cega]2 [DFA]4 | [Bdeg]2 [A^ce]2 [_GA=c_e]2 [^fac'd']2 | %12
w: d:~viio7 V65 i|iiø43 V g:~iio42 V65|
 [=GBd]2 [GB=e]2 [Ad=f]2 [A^ceg]2 | d4 a4 | d4 G2 [GB_e]2 | [Adf]4 [A^c=e]2 [Aceg]2 || %16
w: d:~iv iio6 i64 V7|d:~i[no3no5] V[no3no5]|i[no3no5] iv[no3no5] bII6|i64 V V7|
[K:D][M:2/2] [DFA]4 [GBce]4 | [DFA]8 | [CEGA]8 | [DFA]8 | [Bdg]4 [Acf]4 | [GBe]4 [FAd]4 | %22
w: D:~I viiø43|I|V65|I|IV6 iii6|ii6 I6|
 [EGc]4 [DFA]4 | [Adf]4 [Ace]4 | [DFA]4 [GBce]4 | [DFA]8 | [CEGA]8 | [DFA]8 | [FAd]4 [GBe]4 | %29
w: viio6 I|I64 V|D:~I viiø43|I|V65|I|I6 ii6|
 [Acf]4 [Bdg]2 [cega]2 | [DFA]2 [GBe]2 [Adf]2 [Ace]2 | [DFA]4 [DGB]4 | [DFA]8 | [DFA]4 [DGB]4 | %34
w: iii6 IV63 V65|I ii6 I64 V|I IV64|I|I IV64|
 [DFA]8 | [DGB]8 | [DFA]8 | [DGB]8 | [DFA]8 | [Bdg]8- | [Bdg]8 | [GBd]8- | [GBd]8 | [EGBd]8 | %44
w: I|IV64|I|IV64|I|IV6||IV||ii7|
 [Aceg]8 | [DFA]8- | [DFA]8 | [EGBd]8 | [Aceg]8 | [DFB]8 | [cea]8 | [Bd^g]4 [gbd']4 | [Ace]8 | %53
w: V7|I||ii7|V7|vi6|V6|A:~viio6 viio|I|
 [dfb]4 [=e=g^ac']4 | [dfb]4 [=e=g^ac']4 | [dfb]4 [^df=ab]4 | [e^gb]8 | [eac']8 | [e^gb]8 | %59
w: ii6 viio43/ii|ii6 viio43/ii|ii6 V65/V|V|I64|V|
 [eac']8 | [e^gb]4 [eac']4 | [e^gb]4 [eac']4 | [e^gb]8- | [egb]8 | [Ace]4 [df^gb]4 | [Ace]8 | %66
w: I64|V I64|V I64|V||I viiø43|I|
 [^GBde]8 | [Ace]8 | [fad']4 [e^gc']4 | [dfb]4 [cea]4 | [Bd^g]4 [Ace]4 | [eac']4 [e^gb]4 | %72
w: V65|I|IV6 iii6|ii6 I6|viio6 I|I64 V|
 [eac']4 [e^gb]4 | [Ace]4 [dfab]2 [Bde^g]2 | [Ace]4 [=GBe]4 | [F^Ace]8 | [B^df=a]8 | %77
w: I64 V|I ii65 V43|I b:~iv6|V7|A:~V7/V|
 [e^gb=d']4 [fac']2 [dfb]2 | [eac']4 [e^gb]4 | [fad']4 [e^gc']4 | [dfb]4 [cea]4 | [Bd^g]4 [Ace]4 | %82
w: V7 vi ii6|I64 V|IV6 iii6|ii6 I6|viio6 I|
 [^GBe]8- | [GBe]8 | [^GBe]4 [GBde]4 | [Ace]4 [Adf]4 | [Ace]4 [Adf]4 | [Ace]4 [Adf]4 | [Ace]8 | %89
w: V63||V6 V65|I IV64|I IV64|I IV64|I|
 [cea]8 | [^dfab]8 | [eac']4 [e^gb=d']4 | [eac']4 [e^gbd']4 | [eac']2 [dfb]6- | [dfb]8 | %95
w: I6|V65/V|I64 V7|I64 V7|I64 ii6||
 [e^gbd']8 | [e^gbd']4 [fac']4 | [dfb]4 [e^gbd']4 | [Ace]8 | [dfb]4 [e^gbd']4 | [Ace]8 | %101
w: V7|V7 vi7|ii63 V7|I|ii6 V7|I|
 [dfb]4 [e^gbd']4 | [Ace]8 | [d=f^gb]8 | [cea]8 | [d=f^gb]8 | [cea]8 | [c^e^gb]8 | [fac']8 | %109
w: ii6 V7|I|viio43|I6|viio43|I6|V7/vi|vi|
 [B^dfa]8 | [e^gb]4 [egb=d']4 | [Ace]4 [Adf]4 | [Ace]4 [Adf]4 | [Ace]4 [dfa]2 [dfb]2 | %114
w: V7/V|V V7|I IV64|I IV64|I IV ii6|
 [eac']4 [e^gbd']4 | [Ace]4 [Adf]4 | [Ace]4 [Adf]4 | [Ace]6 [dfb]2 | [eac']4 [e^gbd']4 | %119
w: I64 V7|I IV64|I IV64|I ii6|I64 V7|
 [Ace]6 [e^gb]2 | [Ace]6 [e^gb]2 | [Ace]8- | [Ace]8 :| [^Acef]8 | [Bdf]8 | [^Acef]8 | [=A^df]8 | %127
w: I V|I V|I||b:~V65|i|V65|e:~viio64|
 [GBe]8 | [A=cf]4 [GBe]4 | [F=A^d]4 [EGB]4 | [A=cef]8 | [=cefa]8 | [A=cef]8 | [=cefa]8 | [A=cef]8 | %135
w: i63|iio63 i63|viio63 i|iiø65|iiø43|iiø65|iiø43|iiø65|
 [^Ace=g]8 | [B^df]8- | [Bdf]8 | [AB^df]8- | [ABdf]8 | [^G^B^df]8- | [GBdf]8 | [F^G^B^d]8- | %143
w: viio7/V|V||V42||c#:~V7||V42|
 [FGBd]8 | [E^Gc]8 | [F^G^B^d]8 | [E^Gc]8 | [F^G^B^d]8 | [E^Gc]8 | [^D^^F^Ac]8 | [^GB^d]8 | %151
w: |i6|V42|i6|V42|i6|g#:~V7|i|
 [c^e^gb]8 | [FAc]8 | [B^dfa]8 | [E^GB]6 [B^dfa]2 | [E^GB]6 [B^dfa]2 | [E=GB]6 [B^dfa]2 | %157
w: f#:~V7|i|E:~V7|I V7|I e:~V7|i V7|
 [EGB]6 [B^dfa]2 | [eg=c']8 | [dfb]8 | [=cea]8 | [Bdg]8 | [A=cf]4 [GBe]4 | [F=A^d]4 [EG=c]4 | %164
w: i V7|VI6|v6|iv6|III6|iio6 i6|viio6 VI6|
 [^DFB]8 | [EGB]8 | [AB^df]4 [GBe]4 | [EGB]8 | [AB^df]4 [GBe]4 | [GBe]8- | [GBe]8 | [GBd^e]8- | %172
w: V6|i|V42 i6|i|V42 i6|i6||b:~Ger65|
 [GBde]8 | [F^Ac]8 | [GBd]4 [F^Ac]4 | [FB=d]4 [F^Ace]4 | [^E^GB=d]8 | [F^Ac=e]8 | [DFB]8 | %179
w: |V|VI V|i64 V7|viio7/V|V7|i6|
 [EF^Ac]4 [DFB]4 | [DFB]8 | [EG^Ac]4 [DFB]4- | [DFB]6 [^DF=AB]2 | [EGB]2 [FB=d]2 [GBe]2 [^GBd]2 | %184
w: V42 i6|i6|viio43 i6|* D:~V65/ii|ii vi64 ii6 viio/V|
 [Ace]8 | [A_B=d=f]4 [A=B^d^f]4 | [A=ceg]4 [A^ceg]4 | [Adf]8 | [Aceg]8- | [Aceg]8- | [Aceg]8- | %191
w: V|bVI42[#7] VI42|v7 V7|I64|V7|||
 [Aceg]8 | [DFA]4 [GBce]4 | [DFA]8 | [CEGA]8 | [DFA]8 | [Bdg]4 [Acf]4 | [GBe]4 [FAd]4 | %198
w: |D:~I viiø43|I|V65|I|IV6 iii6|ii6 I6|
 [EGc]4 [DFA]4 | [Adf]4 [Ace]4 | [FA]4 [EGBc]4 | [DFA]8 | [Ace]8 | [Bd^g]4 [Ace]4 | [dfb]4 [cea]4 | %205
w: viio6 I|I64 V|I viiø65|I|V|viio6/V V|vi6 V6|
 [Bdg]4 [Acf]4 | [GBe]4 [Adf]2 [Ace]2 | [DFA]4 [DGB]4 | [DFA]8 | [DFA]4 [DGB]4 | [DFA]8 | [DGB]8 | %212
w: IV6 iii6|ii6 I64 V|I IV64|I|I IV64|I|IV64|
 [DFA]8 | [DGB]8 | [DFA]8 | [Bdg]8- | [Bdg]8 | [GBd]8- | [GBd]8 | [EGBd]8 | [Aceg]8 | [DFAc]8 | %222
w: I|IV64|I|IV6||IV||ii7|V7|I7|
 [GBdf]8 | [cegb]4 [FAce]4 | [Bdfa]4 [E^GBd]4 | [Ace]8 | [Aceg]8 | [FAd]8 | [GAce]4 [FAd]4 | %229
w: IV7|viiø7 iii7|vi7 V7/V|V|V7|I6|V42 I6|
 [FAd]8 | [GAce]4 [FAd]4 | [GAce]2 [FAd]2 [GAce]2 [FAd]2 | [GAce]2 [FAd]2 [GAce]2 [FAd]2 | %233
w: I6|V42 I6|V42 I6 V42 I6|V42 I6 V42 I6|
 [EGc]4 [DFB]4 | [cea]4 [Bdg]4 | [Acf]8 | [GBe]8 | [F-=A-=c^d-]8 | [FAd]4 [GBe]4 | [EGc]8- | %240
w: viio6 vi6|V6 IV6|iii6|ii6|viio65/ii|* ii6|viio65|
 [EGc]4 [FAd]4 | x8 | x8 | [FAd]8 | [GBd]8 | [Aceg]8 | [DFA]4 [EGBc]4 | [FAd]4 [EGBc]4 | %248
w: * I6|||I6|IV|V7|I viiø65|I6 viiø65|
 [FAd]4 [EGBc]4 | [FAd]4 [EGBc]4 | [FAd]4 [EGBc]4 | [DFA]4 [=cea]4 | [B^df]4 [Bdfa]4 | %253
w: I6 viiø65|I6 viiø65|I6 viiø65|I e:~iv6|V V7|
 [E^GB]4 [=d=f^gb]4 | [Ace=g]4 [Bdf]2 [GBe]2 | [Adf]4 [Ace]4 | [Bdf]4 [Acf]4 | [GBe]4 [FAd]4 | %258
w: I D:~viio43/V|V7 vi ii6|I64 V|VI iii6|ii6 I6|
 [EGc]4 [ceg]4 | [DFA]4 [DGB]4 | [DFA]4 [DGB]4 | [FAd]8 | [GBd]8 | [GBe]8 | [Adf]4 [Aceg]4 | %265
w: viio6 viio|I IV64|I IV64|I6|IV|ii6|I64 V7|
 [DFA]8 | [GBe]4 [Aceg]4 | [DFA]8 | [GBe]4 [Aceg]4 | [DFA]8 | [G_Bd]4 [GBce]4 | [FAd]8 | %272
w: I|ii6 V7|I|ii6 V7|I|iv viio43|I6|
 [G_Bd]4 [GBce]4 | [FAd]8 | [GBe]8 | [Aceg]8 | [FAd]8 | [GAce]4 [FAd]4 | [FAd]8 | [GAce]4 [FAd]4 | %280
w: iv viio43|I6|ii6|V7|I6|V42 I6|I6|V42 I6|
 [EGB]4 [Aceg]4 | [DFA]4 [GBd]2 [EGB]2 | [Adf]4 [Aceg]4 | [DFA]8 | x8 | x8 | x8 | [DFA]4 [GBd]4 | %288
w: ii V7|I IV ii|I64 V7|I||||I IV|
 [Adf]4 [Aceg]4 | [DFA]8 | x8 | x8 | x8 | x8 |] %294
w: I64 V7|I|||||

